svgs/sharp-solid/beer-mug-empty.svg

<svg xmlns="http://www.w3.org/2000/svg" viewBox="0 0 512 512"><!--! Font Awesome Pro 6.6.0 by @fontawesome - https://fontawesome.com License - https://fontawesome.com/license (Commercial License) Copyright 2024 Fonticons, Inc. --><path d="M32 32l352 0 0 64 96 0 32 0 0 32 0 176 0 20.8-19 8.4L384 381.7l0 98.3L32 480 32 32zM384 311.6l64-28.4L448 160l-64 0 0 151.6zM160 144l0-16-32 0 0 16 0 224 0 16 32 0 0-16 0-224zm64 0l0-16-32 0 0 16 0 224 0 16 32 0 0-16 0-224zm64 0l0-16-32 0 0 16 0 224 0 16 32 0 0-16 0-224z"/></svg>

<svg xmlns="http://www.w3.org/2000/svg" viewBox="0 0 512 512"><!--! Font Awesome Pro 6.4.0 by @fontawesome - https://fontawesome.com License - https://fontawesome.com/license (Commercial License) Copyright 2023 Fonticons, Inc. --><path d="M32 32H384V96h96 32v32V304v20.8l-19 8.4L384 381.7V480H32V32zM384 311.6l64-28.4V160H384V311.6zM160 144V128H128v16V368v16h32V368 144zm64 0V128H192v16V368v16h32V368 144zm64 0V128H256v16V368v16h32V368 144z"/></svg>
